X: 6322
T: Carron Streams
R: jig
M: 6/8
K: Dmixolydian
=f/e/de dcA|cBc dcB|cBG ADE|=FGF EDc|
ded dcA|cde =f/e/de|dcA GE=F|DED D2e|
=fde dcA|cBc dcB|cBG ADE|=FGF EDc|
ded dcA|cde =f/e/de|dcA GE=F|DED D3|
age =f2d|eAB cBc|dcB cBG|ADE =FDE|
=FEF GFG|AGA B/c/de|dcA GEG|Ad^c d3|
age =f2d|eAB cBc|dcB cBG|ADE =FDE|
=FEF GFG|AGA B/c/de|dcA GEG|Ad^c d2e|

